src/containers/site/SiteRobotsScreen/asset/coinbase.svg

<svg width="154" height="34" viewBox="0 0 154 34" fill="none" xmlns="http://www.w3.org/2000/svg">
<g clip-path="url(#clip0)">
<path d="M11.985 29.3755C13.185 29.3755 14.2938 29.1573 15.3448 28.7467C15.3538 28.7672 17.4931 32.091 17.5239 32.1141C15.5874 33.1549 13.5635 33.6131 11.3511 33.6131C4.774 33.6131 0 29.2793 0 22.3608C0 15.3923 5.01783 11.0585 11.3511 11.0585C13.6059 11.0585 15.3833 11.5474 17.1736 12.5048C16.9759 12.8333 15.1331 15.9621 15.1266 15.9749C14.0653 15.5527 12.9309 15.3384 11.7887 15.3461C7.89122 15.3461 4.87153 17.8306 4.87153 22.3608C4.87153 26.6471 7.79368 29.3755 11.985 29.3755ZM28.5734 11.0585C35.053 11.0585 39.7294 15.6387 39.7294 22.3608C39.7294 29.0341 35.053 33.6131 28.5734 33.6131C22.1439 33.6131 17.4674 29.0354 17.4674 22.3608C17.4674 15.6387 22.1439 11.0585 28.5734 11.0585ZM28.5734 15.1998C24.9698 15.1998 22.3377 17.9769 22.3377 22.3608C22.3377 26.6972 24.9685 29.473 28.5747 29.473C32.2771 29.473 34.8592 26.6972 34.8592 22.3608C34.8592 17.9769 32.2771 15.1998 28.5734 15.1998ZM42.7992 33.1267V11.5449H47.6206V33.1267H42.7992ZM42.1652 4.91902C42.1652 3.26352 43.5794 1.94938 45.1862 1.94938C46.7942 1.94938 48.2058 3.26352 48.2058 4.9203C48.2058 6.62585 46.7942 7.99003 45.1862 7.99003C43.5794 7.99003 42.1652 6.62585 42.1652 4.9203V4.91902ZM51.8287 12.9103C54.8484 11.7412 58.5534 11.0585 61.7181 11.0585C67.2236 11.0585 70.7309 13.1529 70.7309 19.2423V33.1267H65.9569V19.6812C65.9569 16.564 64.0088 15.4424 61.3279 15.4424C59.6224 15.4424 57.9194 15.6862 56.6515 16.0763V33.1267H51.8287V12.9103ZM74.7696 0H79.591V12.1314C80.6139 11.5949 82.6107 11.0585 84.5101 11.0585C90.7471 11.0585 95.4222 15.0522 95.4222 21.9707C95.4222 28.9366 90.7958 33.6131 82.8071 33.6131C80.0672 33.6054 77.3491 33.128 74.7696 32.2014V0ZM79.591 29.0354C80.5163 29.3267 81.7342 29.4718 82.9521 29.4718C87.3847 29.4718 90.552 27.0373 90.552 22.0669C90.552 17.8781 87.5811 15.3936 83.9274 15.3936C82.0281 15.3936 80.5651 15.8813 79.5898 16.4177V29.0354H79.591ZM109.354 18.6571C109.354 16.3189 107.6 15.2486 105.213 15.2486C102.728 15.2486 100.78 15.9788 98.9784 17.0016V12.8115C100.878 11.7412 103.312 11.0585 105.993 11.0585C110.717 11.0585 114.078 13.0066 114.078 18.4133V32.6878C112.032 33.2229 109.112 33.5656 106.676 33.5656C101.073 33.5656 96.9802 31.86 96.9802 26.9885C96.9802 22.6046 100.73 20.4615 106.966 20.4615H109.353L109.354 18.6571C109.353 18.6571 109.354 18.6571 109.354 18.6571ZM109.354 23.6749H107.308C103.946 23.6749 101.753 24.6503 101.753 26.8422C101.753 29.0829 103.801 29.9594 106.723 29.9594C107.455 29.9594 108.478 29.8619 109.354 29.7156V23.6749ZM117.585 27.2811C119.584 28.7903 121.969 29.7156 124.161 29.7156C126.306 29.7156 127.719 28.9854 127.719 27.2811C127.719 25.5255 126.452 24.8928 123.676 24.1626C119.193 23.1398 117.293 21.338 117.293 17.5868C117.293 13.2017 120.606 11.0585 124.99 11.0585C127.426 11.0585 129.374 11.5949 131.176 12.714V17.1479C129.277 15.785 127.426 14.956 125.137 14.956C123.042 14.956 121.922 15.9788 121.922 17.3917C121.922 18.8034 122.846 19.5349 125.332 20.2151C130.253 21.2879 132.395 23.1411 132.395 27.0373C132.395 31.5674 128.936 33.6131 124.26 33.6131C121.727 33.6131 119.193 32.9329 117.587 31.86V27.2811H117.585ZM138.997 23.4324V23.5299C139.289 27.3773 142.6 29.4718 145.961 29.4718C148.933 29.4718 151.078 28.7903 153.22 27.3774V31.6175C151.272 32.9804 148.397 33.6131 145.622 33.6131C138.899 33.6131 134.32 29.3267 134.32 22.5071C134.32 15.6387 138.8 11.0598 144.745 11.0598C151.028 11.0598 154 15.1023 154 20.9953V23.4337H138.997V23.4324ZM149.469 20.3139C149.372 16.9516 147.717 15.1023 144.598 15.1023C141.821 15.1023 139.776 17.0517 139.143 20.3152L149.469 20.3139C149.47 20.3152 149.469 20.3139 149.469 20.3139Z" fill="#B5B5B5"/>
</g>
<defs>
<clipPath id="clip0">
<rect width="154" height="33.6131" fill="white"/>
</clipPath>
</defs>
</svg>

<svg width="154" height="34" fill="none" xmlns="http://www.w3.org/2000/svg"><g clip-path="url(#clip0)"><path d="M11.985 29.375c1.2 0 2.309-.218 3.36-.628.009.02 2.148 3.344 2.179 3.367-1.937 1.04-3.96 1.5-6.173 1.5C4.774 33.613 0 29.278 0 22.36c0-6.969 5.018-11.303 11.351-11.303 2.255 0 4.032.49 5.823 1.447-.198.328-2.04 3.457-2.047 3.47a8.873 8.873 0 00-3.338-.629c-3.898 0-6.917 2.485-6.917 7.015 0 4.286 2.922 7.014 7.113 7.014zm16.588-18.317c6.48 0 11.156 4.58 11.156 11.303 0 6.673-4.676 11.252-11.156 11.252-6.43 0-11.106-4.578-11.106-11.252 0-6.722 4.677-11.303 11.106-11.303zm0 4.142c-3.603 0-6.235 2.777-6.235 7.16 0 4.337 2.63 7.113 6.237 7.113 3.702 0 6.284-2.776 6.284-7.112 0-4.384-2.582-7.161-6.286-7.161zM42.8 33.127V11.545h4.822v21.582h-4.822zm-.634-28.208c0-1.655 1.414-2.97 3.021-2.97 1.608 0 3.02 1.315 3.02 2.971 0 1.706-1.412 3.07-3.02 3.07-1.607 0-3.02-1.364-3.02-3.07V4.92zm9.664 7.991c3.02-1.169 6.724-1.851 9.89-1.851 5.505 0 9.012 2.094 9.012 8.183v13.885h-4.774V19.68c0-3.117-1.948-4.239-4.63-4.239-1.705 0-3.408.244-4.675.634v17.05h-4.823V12.91zM74.769 0h4.822v12.131c1.023-.536 3.02-1.072 4.92-1.072 6.236 0 10.911 3.993 10.911 10.912 0 6.966-4.626 11.642-12.615 11.642a23.972 23.972 0 01-8.037-1.412V0zm4.822 29.035c.925.292 2.143.437 3.361.437 4.433 0 7.6-2.435 7.6-7.405 0-4.189-2.97-6.673-6.625-6.673-1.899 0-3.362.487-4.337 1.024v12.617h.001zm29.763-10.378c0-2.338-1.754-3.408-4.141-3.408-2.485 0-4.433.73-6.235 1.753v-4.19c1.9-1.07 4.334-1.753 7.015-1.753 4.724 0 8.085 1.948 8.085 7.354v14.275c-2.046.535-4.966.878-7.402.878-5.603 0-9.696-1.706-9.696-6.578 0-4.383 3.75-6.526 9.986-6.526h2.387l.001-1.805c-.001 0 0 0 0 0zm0 5.018h-2.046c-3.362 0-5.555.975-5.555 3.167 0 2.24 2.048 3.117 4.97 3.117.732 0 1.755-.097 2.631-.243v-6.041zm8.231 3.606c1.999 1.51 4.384 2.435 6.576 2.435 2.145 0 3.558-.73 3.558-2.435 0-1.755-1.267-2.388-4.043-3.118-4.483-1.023-6.383-2.825-6.383-6.576 0-4.385 3.313-6.528 7.697-6.528 2.436 0 4.384.536 6.186 1.655v4.434c-1.899-1.363-3.75-2.192-6.039-2.192-2.095 0-3.215 1.023-3.215 2.436 0 1.411.924 2.143 3.41 2.823 4.921 1.073 7.063 2.926 7.063 6.822 0 4.53-3.459 6.576-8.135 6.576-2.533 0-5.067-.68-6.673-1.753v-4.579h-.002zm21.412-3.849v.098c.292 3.847 3.603 5.942 6.964 5.942 2.972 0 5.117-.682 7.259-2.095v4.24c-1.948 1.363-4.823 1.996-7.598 1.996-6.723 0-11.302-4.286-11.302-11.106 0-6.868 4.48-11.447 10.425-11.447 6.283 0 9.255 4.042 9.255 9.935v2.439h-15.003v-.002zm10.472-3.118c-.097-3.362-1.752-5.212-4.871-5.212-2.777 0-4.822 1.95-5.455 5.213l10.326-.001c.001.001 0 0 0 0z" fill="#B5B5B5"/></g><defs><clipPath id="clip0"><path fill="#fff" d="M0 0h154v33.613H0z"/></clipPath></defs></svg>
